app/assets/images/check_inbox.svg

<svg width="113" height="108" viewBox="0 0 113 108" fill="none" xmlns="http://www.w3.org/2000/svg">
    <path fill-rule="evenodd" clip-rule="evenodd"
        d="M84.167 12.0674H45.943C42.3388 12.0674 39.3904 15.016 39.3904 18.6198V74.9713C39.3904 78.5756 42.3385 81.5237 45.943 81.5237H84.167C87.771 81.5237 90.7193 78.5756 90.7193 74.9713V18.6198C90.7191 15.0155 87.7704 12.0674 84.167 12.0674Z"
        fill="#C2C2C2" />
    <path fill-rule="evenodd" clip-rule="evenodd"
        d="M101.578 48.3706C98.8786 40.6577 91.8706 45.5454 89.2438 52.5251C86.753 59.1435 81.9545 83.6134 76.6037 92.3404L78.7087 93.3306C89.4127 83.9481 105.033 58.2455 101.578 48.3706Z"
        fill="#3AC491" />
    <path fill-rule="evenodd" clip-rule="evenodd"
        d="M77.9347 92.9664C91.7015 76.7167 97.4581 48.011 97.4782 47.9133C97.5148 47.7357 97.3999 47.5619 97.2218 47.5252C97.0436 47.4891 96.8703 47.604 96.8337 47.7816C96.8136 47.8793 91.0513 76.6186 77.3256 92.6798L77.9347 92.9664Z"
        fill="#1D8C63" />
    <path fill-rule="evenodd" clip-rule="evenodd"
        d="M105.702 69.0197C112.037 69.197 110.077 75.5264 105.538 79.1118C102.467 81.5378 92.9551 86.9748 85.8734 92.0734C83.2841 93.4551 81.745 93.8174 78.8025 93.0482L81.4979 90.0149C87.9076 80.2761 99.1528 68.8367 105.702 69.0197Z"
        fill="#1D8C63" />
    <path fill-rule="evenodd" clip-rule="evenodd"
        d="M83.0607 90.7511C92.7447 79.8541 106.948 71.9735 107.005 71.9414C107.128 71.873 107.283 71.9167 107.352 72.0398C107.421 72.1626 107.377 72.318 107.254 72.3869C107.198 72.4188 93.1439 80.2176 83.5356 90.9746L83.0607 90.7511Z"
        fill="#4ED0A0" />
    <path fill-rule="evenodd" clip-rule="evenodd"
        d="M6.93029 94.3976H77.0298C80.8415 94.3976 83.9603 91.2788 83.9603 87.4676V45.8861C83.9603 43.7669 82.996 41.8623 81.485 40.5888H81.5056C80.7416 39.988 79.8799 39.4498 79.0448 38.9121C76.6914 37.3963 57.2631 26.261 51.603 22.6387C43.7486 17.6116 40.2069 17.6058 32.3568 22.6387C26.8668 26.1582 7.26843 37.3963 4.91523 38.9121C4.07995 39.4498 3.21816 39.9883 2.45417 40.5888H2.4751C0.96407 41.8626 0 43.7669 0 45.8861V87.4676C0 91.2791 3.11853 94.3976 6.93029 94.3976Z"
        fill="#F1910E" />
    <path fill-rule="evenodd" clip-rule="evenodd"
        d="M14.0676 83.9208H69.8928C74.4442 83.9208 78.1682 80.1967 78.1682 75.6451V20.3435C78.1682 11.2032 86.4439 12.0678 86.4439 12.0678H79.0025H78.1682H14.0676C9.51592 12.0678 5.79187 15.7918 5.79187 20.3435V75.6451C5.79187 80.1967 9.51592 83.9208 14.0676 83.9208Z"
        fill="#F3F1F1" />
    <path
        d="M42.6889 54L34 45.2328L36.9192 42.3579L41.9948 47.479L52.5397 31L56 33.1993L42.6889 54Z"
        fill="#658C79" />
    <path fill-rule="evenodd" clip-rule="evenodd"
        d="M41.9803 94.3986H77.0298C80.8415 94.3986 83.9603 91.2798 83.9603 87.4686V45.8871C83.9603 45.7167 83.954 45.5476 83.9415 45.3799C83.959 45.718 84.0756 49.8685 79.1813 52.9271C74.0758 56.1185 41.9803 73.6679 41.9803 73.6679C41.9803 73.6679 9.88425 56.1182 4.77875 52.9271C-0.115543 49.8682 0.000792898 45.718 0.0185479 45.3799C0.00609291 45.5476 0 45.7167 0 45.8871V87.4686C0 91.2801 3.11826 94.3986 6.93029 94.3986H41.9803Z"
        fill="#FBC900" />
    <path fill-rule="evenodd" clip-rule="evenodd"
        d="M32.3568 65.2509C26.8668 68.7704 7.26843 80.0085 4.91523 81.5243C2.56176 83.0404 0 84.5564 0 87.4683C0 91.2798 3.11879 94.3983 6.93029 94.3983H77.0298C80.8415 94.3983 83.9603 91.2795 83.9603 87.4683H83.9598C83.9598 84.5567 81.398 83.0404 79.0448 81.5243C76.6914 80.0085 57.2631 68.8732 51.603 65.2509C43.7489 60.2238 40.2069 60.2183 32.3568 65.2509Z"
        fill="#F6AF00" />
    <path fill-rule="evenodd" clip-rule="evenodd"
        d="M94.719 73.4205C97.0492 76.0199 98.0193 78.2316 97.2898 79.8001C96.0719 82.4205 90.4263 82.5718 82.285 80.6977C74.416 78.8872 64.09 75.2284 53.1733 70.1533C47.1642 67.3592 41.5984 64.4251 36.7322 61.5435C33.9696 59.9071 31.4311 58.2864 29.1641 56.7173C28.4753 56.2445 28.4136 55.5457 28.6513 55.3165C28.8892 55.0867 29.3541 55.29 29.3541 55.29H29.3543C31.7279 56.9568 34.4238 58.6884 37.3825 60.4411C42.2119 63.301 47.7398 66.2152 53.7126 68.9921C64.5464 74.029 74.7817 77.6563 82.5714 79.4495C90.089 81.1795 95.2019 81.2537 96.1283 79.2609C96.5682 78.3151 96.0438 76.9474 94.7114 75.2766C94.7164 75.1756 94.7185 75.0739 94.7185 74.9721V73.4205H94.719Z"
        fill="#10BC7C" />
    <path fill-rule="evenodd" clip-rule="evenodd"
        d="M28.1266 49.0771L24.4878 57.4471L11.1769 42.5088L28.09 47.1248L28.1266 49.0771Z"
        fill="#418265" />
    <path fill-rule="evenodd" clip-rule="evenodd"
        d="M24.4879 57.4469L19.3546 51.6861C19.4521 51.004 19.4463 50.209 19.4463 50.209L24.6562 51.7802L24.4879 57.4469Z"
        fill="#5EBA9A" />
    <path fill-rule="evenodd" clip-rule="evenodd"
        d="M11.1769 42.5088L33.5079 46.9354L28.1266 49.0771L11.1769 42.5088Z" fill="#78D1B2" />
    <path fill-rule="evenodd" clip-rule="evenodd"
        d="M11.1769 42.5088L17.619 57.5884L24.6559 51.7804L11.1769 42.5088Z" fill="#78D1B2" />
</svg>

<svg xmlns="http://www.w3.org/2000/svg" width="113" height="108" fill="none"><path fill="#C2C2C2" fill-rule="evenodd" d="M84.167 12.067H45.943c-3.604 0-6.553 2.949-6.553 6.553v56.35c0 3.605 2.949 6.553 6.553 6.553h38.224c3.604 0 6.552-2.948 6.552-6.553V18.62c0-3.605-2.949-6.553-6.552-6.553" clip-rule="evenodd"/><path fill="#3AC491" fill-rule="evenodd" d="M101.578 48.37c-2.7-7.712-9.707-2.825-12.334 4.155-2.491 6.619-7.29 31.088-12.64 39.815l2.105.99c10.704-9.382 26.324-35.084 22.869-44.96" clip-rule="evenodd"/><path fill="#1D8C63" fill-rule="evenodd" d="M77.935 92.966C91.7 76.716 97.458 48.011 97.478 47.913a.329.329 0 0 0-.644-.131c-.02.097-5.783 28.837-19.508 44.898zm27.767-23.946c6.335.177 4.375 6.506-.164 10.092-3.071 2.426-12.583 7.863-19.665 12.961-2.589 1.382-4.128 1.744-7.07.975l2.695-3.033c6.41-9.739 17.655-21.178 24.204-20.995" clip-rule="evenodd"/><path fill="#4ED0A0" fill-rule="evenodd" d="M83.06 90.751c9.685-10.897 23.888-18.778 23.945-18.81a.255.255 0 0 1 .249.446c-.056.032-14.11 7.83-23.718 18.588z" clip-rule="evenodd"/><path fill="#F1910E" fill-rule="evenodd" d="M6.93 94.398h70.1c3.811 0 6.93-3.12 6.93-6.93V45.886c0-2.12-.964-4.024-2.475-5.297h.02c-.763-.601-1.625-1.14-2.46-1.677-2.354-1.516-21.782-12.651-27.442-16.273-7.854-5.027-11.396-5.033-19.246 0-5.49 3.52-25.089 14.757-27.442 16.273-.835.538-1.697 1.076-2.46 1.677h.02A6.92 6.92 0 0 0 0 45.886v41.582c0 3.811 3.119 6.93 6.93 6.93" clip-rule="evenodd"/><path fill="#F3F1F1" fill-rule="evenodd" d="M14.068 83.92h55.825c4.551 0 8.275-3.723 8.275-8.275V20.344c0-9.14 8.276-8.276 8.276-8.276H14.068c-4.552 0-8.276 3.724-8.276 8.276v55.301c0 4.552 3.724 8.276 8.276 8.276" clip-rule="evenodd"/><path fill="#658C79" d="M42.689 54 34 45.233l2.92-2.875 5.075 5.121L52.54 31 56 33.2z"/><path fill="#FBC900" fill-rule="evenodd" d="M41.98 94.399h35.05c3.811 0 6.93-3.12 6.93-6.93V45.887q0-.256-.018-.507c.017.338.134 4.488-4.76 7.547-5.106 3.191-37.202 20.74-37.202 20.74S9.884 56.119 4.78 52.928C-.116 49.868 0 45.718.019 45.38a7 7 0 0 0-.019.507V87.47c0 3.811 3.118 6.93 6.93 6.93z" clip-rule="evenodd"/><path fill="#F6AF00" fill-rule="evenodd" d="M32.357 65.25c-5.49 3.52-25.089 14.758-27.442 16.274S0 84.556 0 87.468c0 3.812 3.119 6.93 6.93 6.93h70.1c3.811 0 6.93-3.118 6.93-6.93 0-2.911-2.562-4.428-4.915-5.944s-21.782-12.65-27.442-16.273c-7.854-5.027-11.396-5.033-19.246 0" clip-rule="evenodd"/><path fill="#10BC7C" fill-rule="evenodd" d="M94.719 73.42c2.33 2.6 3.3 4.812 2.57 6.38-1.217 2.62-6.863 2.772-15.004.898-7.869-1.81-18.195-5.47-29.112-10.545-6.009-2.794-11.575-5.728-16.44-8.61a128 128 0 0 1-7.569-4.826c-.689-.472-.75-1.171-.513-1.4.238-.23.703-.027.703-.027 2.374 1.667 5.07 3.398 8.029 5.151 4.829 2.86 10.357 5.774 16.33 8.551C64.546 74.03 74.782 77.656 82.57 79.45c7.518 1.73 12.63 1.805 13.557-.188.44-.946-.084-2.314-1.417-3.984q.008-.152.008-.305z" clip-rule="evenodd"/><path fill="#418265" fill-rule="evenodd" d="m28.127 49.077-3.64 8.37-13.31-14.938 16.913 4.616z" clip-rule="evenodd"/><path fill="#5EBA9A" fill-rule="evenodd" d="m24.488 57.447-5.133-5.76c.097-.683.091-1.478.091-1.478l5.21 1.571z" clip-rule="evenodd"/><path fill="#78D1B2" fill-rule="evenodd" d="m11.177 42.509 22.33 4.426-5.38 2.142zm0 0 6.442 15.08 7.037-5.809z" clip-rule="evenodd"/></svg>
